X: 11332
T: Eamon Flynn's
R: reel
M: 4/4
K: Edorian
D|E2GB edBA|~G3A FD~D2|EDEF GFGA|Beef gefd|
eagf eEEF|GBAG FD~D2|EDEF GBed|BAGF E3:|
d|~e3f g2fg|edBG EGBG|Adde ~f3e|dBAF DEFA|
Beef ~g3f|edBG EGBG|Ad~d2 ~f3e|dBAF E3:|

